X:1
T:Calisthenic -- Hornpipe
R:hornpipe
B:Cole's 1000 Fiddle Tunes
M:2/4
L:1/16
K:Bb
(uFB)|dBcA .B(F=EF)|dBcA .B(F=EF)|BABc defg|fdBd c2(FB)|
dBcA .B(F=EF)|dBcA .B(F=EF)|BABc dcBd|1 cBAc B2:| cBAc B2z2|]
|:vf3g f=ef^f|g2g2 g3a|bagf edcB|ABcA FABd|
f3g f=ef^f|g2g2 g3a|bagf edcB|1 ABcA B2z2:|2 ABcA B2|]
